X:0062
T:Albina.
T:Albinia.
N:second title is as in the index
M:6/8
L:1/8
Q:3/8=120
I: :: :: :: ::
% A B ^c d e ^f g a
Z:Jack Campin * www.campin.me.uk * 2009
K:D
d2e fgf|edc d2A|d2e fgf|edc d3:|
dcd B3 |e2d cBA|dcd B3 |edc d3:|
a2f a2f|efg fed|a2f a2f|edc d3:|
B2d A2d|efg fed|B2d A2d|edc d3:|

